Avidclan_Website/assets/images/icons/availability-ic.svg

<?xml version="1.0" encoding="utf-8"?>
<!-- Generator: Adobe Illustrator 24.1.1, SVG Export Plug-In . SVG Version: 6.00 Build 0)  -->
<svg version="1.1" id="Layer_1" xmlns="http://www.w3.org/2000/svg" xmlns:xlink="http://www.w3.org/1999/xlink" x="0px" y="0px"
	 viewBox="0 0 189.4 189.4" style="enable-background:new 0 0 189.4 189.4;" xml:space="preserve">
<style type="text/css">
	.st0{fill:#007AFB;}
</style>
<path class="st0" d="M94.7,0C42.5,0,0,42.5,0,94.7c0,52.2,42.5,94.7,94.7,94.7c52.2,0,94.7-42.5,94.7-94.7
	C189.4,42.5,146.9,0,94.7,0z M94.7,175.2c-44.4,0-80.5-36.1-80.5-80.5c0-44.4,36.1-80.5,80.5-80.5c44.4,0,80.5,36.1,80.5,80.5
	C175.2,139.1,139.1,175.2,94.7,175.2z M144.3,58.5c3,2.5,3.4,7,0.8,10L93,130.1c-1.3,1.5-3.3,2.5-5.4,2.5c-1.7,0-3.4-0.6-4.7-1.8
	L45,97.7c-3-2.6-3.3-7.1-0.7-10c2.6-3,7.1-3.3,10-0.7l32.4,28.4l47.4-56C136.8,56.4,141.3,56,144.3,58.5L144.3,58.5z"/>
</svg>

<svg width="190" height="190" viewBox="0 0 190 190" fill="none" xmlns="http://www.w3.org/2000/svg">
<g clip-path="url(#clip0_493_298)">
<path d="M94.7 0C42.5 0 0 42.5 0 94.7C0 146.9 42.5 189.4 94.7 189.4C146.9 189.4 189.4 146.9 189.4 94.7C189.4 42.5 146.9 0 94.7 0ZM94.7 175.2C50.3 175.2 14.2 139.1 14.2 94.7C14.2 50.3 50.3 14.2 94.7 14.2C139.1 14.2 175.2 50.3 175.2 94.7C175.2 139.1 139.1 175.2 94.7 175.2ZM144.3 58.5C147.3 61 147.7 65.5 145.1 68.5L93 130.1C91.7 131.6 89.7 132.6 87.6 132.6C85.9 132.6 84.2 132 82.9 130.8L45 97.7C42 95.1 41.7 90.6 44.3 87.7C46.9 84.7 51.4 84.4 54.3 87L86.7 115.4L134.1 59.4C136.8 56.4 141.3 56 144.3 58.5Z" fill="#0E53BE"/>
</g>
<defs>
<clipPath id="clip0_493_298">
<rect width="189.4" height="189.4" fill="white"/>
</clipPath>
</defs>
</svg>
